X:1
T:Silent Night (Cello Only)
T:Silent Night: Theme and Variations for Cello and Piano 
L:1/8
Q:3/8=30
M:6/8
K:Bb
V:1 tenor nm="Violoncello" snm="Vc."
V:1
!p!"^Tema" F>GF D3 |!mp! F>GF D3 |!mf! c2 c A3 |!mp! B2 B F3 |!mf! G2 G B>AG | F>GF D3 | %6
!p! G2 G BAG | F>GF D3 |!mf! c2 c e>cA | B3 d3 |!mp! BFD F>EC | B,3- B, z2 | %12
[Q:3/8=42]!mf!"^pizz""^Var. I: Arpeggios" .D,/.F,/.B,/.D/.F .B,,/.D,/.F,/.B,/.D | %13
!f! .D,/.F,/.B,/.D/.F .B,,/.D,/.F,/.B,/.D |!ff! .A,/.C/.E/.A/.c .F,/.A,/.C/.F/.A | %15
!f! .F,/.B,/.D/.F/.B .F,/._A,/.D/.F/._A |!ff! .E,/.G,/.B,/.E/.G .B,,/.E,/.G,/.B,/.E | %17
 .D,/.F,/.B,/.D/.F .B,,/.D,/.F,/.B,/.D |!mf! .E,/.G,/.B,/.E/.G .B,,/.E,/.G,/.B,/.E | %19
 .D,/.F,/.B,/.D/.F .B,,/.D,/.F,/.B,/.D |!ff! .A,/.C/.F/.A/.c .E,/.A,/.C/.E/.A | %21
 .F,/.B,/.D/.F/.B .D/.F/.B/.d/.f |!f! .B,,/.D,/.F,/.B,/.D .A,,/.C,/.E,/.A,/.C | %23
 .B,,/.D,/.F,/.B,/.D .[F,DB] z2 | %24
!mf![Q:3/8=60]"^arco""^Var. II: Interpolation" .F/.B,/.D/.G/.F/.F,/ .D/.B,,/.D,/.F,/.B,/.D/ | %25
!f! .F/.B,/.D/.G/.F/.F,/ .D/.B,,/.D,/.F,/.B,/.D/ |!ff! .c/.C/.E/.A/.c/.E/ .A/.A,/.C/.F/.A/.F/ | %27
!f! .B/.B,/.D/.F/.B/.D/ .F/.F,/._A,/.D/.F/._A/ |!ff! .G/.G,/.B,/.E/.G/.E/ .B/.B,/.E/.A/.G/.B,/ | %29
 .F/.B,/.D/.G/.F/.F,/ .D/.B,,/.D,/.F,/.B,/.D/ | %30
!mf! .G/.G,/.B,/.E/(3.G/._A/.=A/ .B/.B,/.A/.B,/.G/.B,/ | %31
 .F/.B,/.D/.G/.F/.F,/ .D/.B,,/.D,/.F,/.B,/.D/ |!ff! .c/.C/.F/.A/.c/.F/ .e/.C/.A,/.c/.A/.F,/ | %33
 .B/.F,/.B,/.D/.F/.B/[K:treble] .d/.D/.F/.B/.d/.f/ | %34
[K:tenor]!f! .B/.B,/.F/.F,/.D/.D,/ .F/.A,/.C/.E/.C/.A,/ | .B,,/.D,/.F,/.B,/.D/.F/ .B z2 |] %36

